digitransit-component/packages/digitransit-component-icon/src/assets/bus-waltti.svg

<svg width="24" height="24" viewBox="0 0 24 24" fill="none" xmlns="http://www.w3.org/2000/svg">
<path d="M18.0749 2.40033H5.92592C5.25535 2.40033 4.71094 2.9439 4.71094 3.61532V18.1943C4.71094 18.8649 5.25451 19.4093 5.92592 19.4093H18.0749C18.7455 19.4093 19.2899 18.8657 19.2899 18.1943V3.61532C19.2891 2.9439 18.7455 2.40033 18.0749 2.40033ZM9.29994 3.48577H14.7001V4.40019H9.29994V3.48577ZM6.85558 17.2316C6.34164 17.2316 5.92592 16.8151 5.92592 16.302C5.92592 15.788 6.34249 15.3723 6.85558 15.3723C7.36951 15.3723 7.78523 15.7889 7.78523 16.302C7.78608 16.8151 7.36951 17.2316 6.85558 17.2316ZM17.1444 17.2316C16.6305 17.2316 16.2148 16.8151 16.2148 16.302C16.2148 15.788 16.6313 15.3723 17.1444 15.3723C17.6584 15.3723 18.0741 15.7889 18.0741 16.302C18.0749 16.8151 17.6584 17.2316 17.1444 17.2316ZM18.0749 12.3776C18.0749 12.5977 17.9276 12.7899 17.7151 12.8467C16.8684 13.0744 14.6222 13.6019 12 13.6019C9.37784 13.6019 7.1316 13.0744 6.28492 12.8467C6.0724 12.7899 5.92508 12.5977 5.92508 12.3776V5.79382C5.92508 5.52543 6.14267 5.30783 6.41107 5.30783H17.5881C17.8565 5.30783 18.0741 5.52543 18.0741 5.79382V12.3776H18.0749Z" fill="white"/>
<path d="M7.78606 19.3881H5.9259V21.6005H7.78606V19.3881Z" fill="white"/>
<path d="M18.0749 19.3881H16.2148V21.6005H18.0749V19.3881Z" fill="white"/>
</svg>

<svg xmlns="http://www.w3.org/2000/svg" width="24" height="24" fill="none" viewBox="0 0 24 24">
 <path fill="#fff" d="M18.075 2.4H5.925c-.67 0-1.214.544-1.214 1.215v14.58c0 .67.544 1.214 1.215 1.214h12.149c.67 0 1.215-.543 1.215-1.215V3.615c0-.671-.544-1.215-1.215-1.215M9.3 3.486h5.4V4.4H9.3zM6.856 17.232a.93.93 0 1 1 0-1.86.93.93 0 0 1 0 1.86m10.288 0a.93.93 0 1 1 0-1.86.93.93 0 0 1 0 1.86m.93-4.854c0 .22-.146.412-.359.469a23 23 0 0 1-5.715.755 23 23 0 0 1-5.715-.755.485.485 0 0 1-.36-.47V5.795c0-.269.218-.486.486-.486h11.177c.268 0 .486.217.486.486z"/>
 <path fill="#fff" d="M7.786 19.388h-1.86V21.6h1.86zM18.075 19.388h-1.86V21.6h1.86z"/>
</svg>
